X:1
T:Congoxa mas
T:Juan del Encina (1468-1529) 
T:596
T:Cancionero de Palacio, no. 512 (Madrid, c.1505-1520) 
%%score [ 1 2 3 ]
L:1/8
Q:1/4=90
M:4/4
K:C
V:1 treble nm="Soprano" snm="S"
V:2 treble nm="Alto" snm="A"
V:3 treble-8 nm="Tenor" snm="T"
V:1
 G4 A4 | (B3 c) d2 (e2- | e2 dc B2 c2- | cA) B2 c4 | B2 B2 A4 | A2 (c3 d) e2 |[M:4/4] f4 e4 | %7
w: Con- go-|xa _ más que|_ _ _ _ _|* * cru- el|Com- ba- te|mi tri- * ste|vi- da.|
 e2 A2 c2 B2 | A2 (G>A) (B c2 B) | c8 | e4 e2 e2 | f4 e4- | e2 (dc B4) | A8 | e4 e2 e2 | f4 e4- | %16
w: La cau- sa fué|mi par- * ti- * *|da|par- tir- me|sin me|_ par- * *|tir.|De vos gra-|cío- say|
 e2 (dc) B4 | A8 | G4 A4 | (B3 c) d2 (e2- | e2 dc B2 c2- | cA) B2 c4 | B2 B2 A4 | A2 (c3 d) e2 | %24
w: _ sen- * ti-|da.|Con- go-|xa _ más que|_ _ _ _ _|* * cru- el|Com- ba- te|mi tri- * ste|
 f4 e4 | e2 A2[Q:1/4=88]"^rit." c2[Q:1/4=86] B2 | %26
w: vi- da.|La cau- sa fué|
[Q:1/4=83] A2[Q:1/4=81] (G>[Q:1/4=80]A)[Q:1/4=79] (B[Q:1/4=78] c2[Q:1/4=76] B) |[Q:1/4=76] c8 |] %28
w: mi par- * ti- * *|da.|
V:2
 G4 ^F4 | (G3 A) B2 (G2- | GE ^F2 G2 E2) | D4 C4 | D2 E2 (F2 ED) | (C3 D) (EF) G2 |[M:4/4] A4 G4 | %7
w: Con- go-|xa _ más que|_ _ _ _ _|cru- el|Com- ba- te _ _|mi _ tri- * ste|vi- da.|
 G2 F2 (EFG)(G- | G^F) (G=F/E/) (DC) D2 | C8 | G4 G2 G2 | A4 G4 | (E2 ^F2 G4) | ^F8 | G4 G2 G2 | %15
w: La cau- sa _ _ fué|_ _ mi _ _ par- * ti-|da|par- tir- me|sin me|par- * *|tir.|De vos gra-|
 A4 G4 | E2 ^F2 G4 | ^F8 | G4 ^F4 | (G3 A) B2 (A2- | AE ^F2 G2 E2) | D4 C4 | D2 E2 (F2 ED) | %23
w: ci- o-|say sen- ti-|da.|Con- go-|xa _ más que|_ _ _ _ _|cru- el|Com- ba- te _ _|
 (C3 D) (EF) G2 | A4 A4 | G2 F2 (EFG)(G- | G^F G=F/E/) DC D2 | C8 |] %28
w: mi _ tri\- * ste|vi- da.|La cau- sa _ _ fué|_ _ _ _ _ mi par- ti-|da.|
V:3
 G4 d4 | G6 c2 | (A4 G2) c2 | G4 z2 A2 | G4 F2 (F2- | FG) (AB) c4 |[M:4/4] f4 c4 | c2 (d>c) A2 G2 | %8
w: Con- go-|xa más|que _ cru-|el Com-|ba- te mi|_ _ tri\- * ste|vi- da.|La cau- * sa fué|
 d2 (G3 A) G2 | c8 | c4 c2 c2 | f4 c4- | c2 (BA G4) | d8 | c4 c2 c2 | f4 c4- | c2 (BA) G4 | d8 | %18
w: mi par- * ti-|da|par- tir- me|sin me|_ par- * *|tir.|De vos gra-|ciò- say|_ sen\- * ti-|da.|
 G4 d4 | G6 c2 | (A4 G2) c2 | G4 z2 A2 | G4 F2 (F2- | FG) (AB) c4 | f4 c4 | c2 (d>c) A2 G2 | %26
w: Con- go-|xa más|que _ cru-|el Com-|ba- te mi|_ _ tri\- * ste|vi- da.|La cau- * sa fué|
 d2 (G3 A) G2 | c8 |] %28
w: mi par- * ti-|da.|

